icons/svg/minetokens_details.svg

<?xml version="1.0" encoding="UTF-8"?>
<svg width="30px" height="30px" viewBox="0 0 30 30" version="1.1" xmlns="http://www.w3.org/2000/svg" xmlns:xlink="http://www.w3.org/1999/xlink">
    <g stroke="none" stroke-width="1" fill="none" fill-rule="evenodd">
        <g transform="translate(-425.000000, -324.000000)" fill="#FFFFFF" fill-rule="nonzero">
            <g transform="translate(425.000000, 324.000000)">
                <path d="M29.4971729,11.2291566 C29.4971729,10.2510998 29.144572,9.40891078 28.4494833,8.72625359 C27.7588316,8.04723398 26.9084481,7.70290742 25.9220369,7.70290742 L3.57778629,7.70290742 C2.59173484,7.70290742 1.74127145,8.04707406 1.04950047,8.72633355 C0.355331133,9.4090307 0.00336972656,10.2511397 0.00336972656,11.2291566 L0.00336972656,26.3144488 C0.00336972656,26.809753 0.105140742,27.2801941 0.305684766,27.7125809 C0.501352109,28.1348546 0.771209141,28.5100002 1.10882023,28.8287042 C1.44543199,29.1451296 1.83752617,29.3948004 2.27123211,29.5695219 C2.70997465,29.7484006 3.18081543,29.8390991 3.67076324,29.8390991 L26.016213,29.8390991 C26.5090788,29.8381798 26.9736039,29.7457225 27.3948383,29.5650849 C27.8122353,29.3875653 28.1859819,29.1326581 28.5057651,28.8073986 L28.5084832,28.8046005 C28.8221106,28.4822591 29.0685036,28.1032761 29.2409466,27.6780843 L29.2429053,27.6731677 C29.4113911,27.2494549 29.4971729,26.7928445 29.4971729,26.3161277 L29.4971729,20.0392634 L21.7366346,20.0392634 C21.199159,20.0392634 20.7897966,19.9459666 20.5522776,19.7689666 C20.2762248,19.5637058 20.0809572,19.3444145 19.972031,19.1172085 L19.9636767,19.1004998 C19.8129789,18.8048603 19.7277566,18.4504606 19.7102485,18.047134 C19.7134463,17.4943088 19.8974816,17.0606029 20.2882166,16.6834986 C20.6861868,16.2998786 21.1599856,16.1134051 21.7365946,16.1134051 L29.4971729,16.1134051 L29.4971729,11.2291566 L29.4971729,11.2291566 Z" id="路径"></path>
                <path d="M23.3918324,1.5254957 L23.327516,1.45438391 C22.9372206,1.02271656 22.4653005,0.668796523 21.9247071,0.402377148 L21.8781786,0.381351406 C21.4089768,0.187402891 20.8420411,0.0714415234 20.1930811,0.0365851562 C19.4893582,-0.000869453125 18.7069687,0.205990312 17.8692167,0.652287695 C17.4153644,0.886289023 16.7705616,1.22326059 15.898313,1.68242926 C15.04733,2.13052543 14.1899113,2.57702273 13.3498809,3.00952949 L13.3407271,3.01432625 C12.33345,3.55008301 11.2814033,4.09727203 10.213927,4.64062363 L7.33795695,6.10443117 L25.8259421,6.10443117 L23.3918324,1.5254957 Z" id="路径"></path>
                <path d="M20.7517823,17.0937404 C20.4849232,17.3560426 20.3520533,17.6787438 20.3520533,18.0620039 C20.3520533,18.4445446 20.4849232,18.7726021 20.7517823,19.0438183 C21.0187213,19.3166733 21.3467789,19.4519816 21.7366745,19.4519816 C22.1260105,19.4519816 22.4547877,19.3166733 22.7215668,19.0438183 C22.9885058,18.7726021 23.1207361,18.4445446 23.1207361,18.0620039 C23.1207361,17.6787438 22.9884658,17.3560826 22.7215668,17.0937404 C22.4547876,16.8321978 22.1260505,16.7014064 21.7366745,16.7014064 C21.3467389,16.7014064 21.0186814,16.8321978 20.7517823,17.0937404 Z" id="路径"></path>
            </g>
        </g>
    </g>
</svg>

<svg width="30" height="30" xmlns="http://www.w3.org/2000/svg"><g><path d="M29.497 11.23c0-.979-.352-1.821-1.048-2.504-.69-.679-1.54-1.023-2.527-1.023H3.578c-.986 0-1.837.344-2.528 1.023A3.393 3.393 0 00.003 11.23v15.085c0 .496.102.966.303 1.399.195.422.465.797.803 1.116.336.316.729.566 1.162.74.439.18.91.27 1.4.27h22.345a3.437 3.437 0 002.49-1.032l.002-.002c.314-.323.56-.702.733-1.127l.002-.005c.168-.424.254-.88.254-1.357V20.04h-7.76c-.538 0-.947-.093-1.185-.27-.276-.205-.471-.425-.58-.652l-.008-.017a2.552 2.552 0 01-.254-1.053c.003-.553.187-.986.578-1.364.398-.383.872-.57 1.449-.57h7.76V11.23zM23.392 1.525l-.064-.07A4.65 4.65 0 0021.925.401l-.047-.02c-.469-.195-1.036-.31-1.685-.345-.704-.038-1.486.169-2.324.615-.454.234-1.098.571-1.97 1.03-.852.449-1.71.895-2.55 1.328l-.008.004a196.77 196.77 0 01-3.127 1.627L7.338 6.104h18.488l-2.434-4.579z"/><path d="M20.752 17.094c-.267.262-.4.585-.4.968s.133.71.4.982c.267.273.595.408.985.408.389 0 .718-.135.985-.408.267-.271.399-.6.399-.982 0-.383-.133-.706-.4-.968a1.353 1.353 0 00-.984-.393c-.39 0-.718.131-.985.393z"/></g></svg>
